X:1
T:Title
%%score { ( 1 3 ) | 2 }
L:1/8
M:4/4
K:Bb
V:1 treble nm="Grand Piano"
V:3 treble 
V:2 bass 
V:1
 z4 z2[Q:1/4=100] [B,D][CE] | [DF][DF][DF][DF] [EG] [DF]2 [DF] | [DB][FB][GB][EG] [DF]2 [B,D][CE] | %3
 [DF][DF][DF][DF] [EG] [DF]2 [FB] |[M:3/4] [Fc][Fc] [=Ec][Ed] c2 |[M:1/4] FF | %6
[M:4/4] [Fd]2 [Fd]>[Fd] [Fd][Ec][DB][DF] | [EG]F-[DF-][DF-] [DF-][DF][DF][FB] | z4 z2 c2 | B6 z2 | %10
 [Fd]2 [Fd]>[Fd] [Fd][Ec][DB][DF] | z B3- B2 z2 | c2 cc BB A2 |[M:3/4] [DB]6 |] %14
V:2
 z4 z2 [B,,F,][B,,F,] | [B,,B,][B,,B,][B,,B,][B,,B,] [B,,B,] [B,,B,]2 [B,,B,] | %2
 [B,,B,][D,B,][E,B,][E,B,] [B,,B,]2 [B,,F,][B,,F,] | %3
 [B,,B,][B,,B,][B,,B,][B,,B,] [B,,B,] [B,,B,]2 [D,B,] |[M:3/4] [F,A,][F,A,] [C,G,][C,B,] [F,A,F]2 | %5
[M:1/4] [F,A,][F,A,] |[M:4/4] [B,,B,]2 [B,,B,]>[B,,B,] [B,,B,]2 [B,,B,][B,,B,] | %7
 [B,,B,][B,,B,][B,,B,][B,,B,] [B,,B,][B,,B,][B,,B,][D,B,] | [F,CF]2 [F,CF]2 [F,CF]2 [F,A,E][F,A,] | %9
 [B,,B,][B,,B,][B,,B,][B,,B,] [B,,B,]2 [B,,B,][B,,B,] | %10
 [B,,B,]2 [B,,B,]>[B,,B,] [B,,B,]2 [B,,B,][B,,B,] | %11
 [E,B,][E,B,][E,B,][E,B,] [E,B,][E,B,][D,B,][D,B,] | %12
 [F,A,F]2 [F,A,F][F,A,E] [F,B,D][F,B,D] [F,CE]2 |[M:3/4] [B,,B,]6 |] %14
V:3
 x8 | x8 | x8 | x8 |[M:3/4] x6 |[M:1/4] x2 |[M:4/4] x8 | z D z2 z4 | A2 A2 A2 z E | %9
 DDDD D2 [DF][DF] | x8 | [EG]GGG GG[FB][FB] | x8 |[M:3/4] x6 |] %14

